X: 413
T: Boil The Cabbage Down
B: jims roots
M:4/4
L:1/8
R: reel
Q: 1/4=100
K:Dmaj
V:1 
|: de | "D"[f2d2] [fd][fd] [fd]e df | "G"[B2g2] [Bg][Bg] [Bg]f eg | "D"[f2d2] [fd][fd] [fd]e de | "A"[f2d2] [c2e2] [c2e2] de |
"D"[f2d2] [fd][fd] [fd]e d/e/f | "A"[B2g2] [Bg][Bg] [B2g2] de | "D"fedf "A"edce | "D"[F2d2] [F2d2] [F2d2] :|
|: dB | "D"AffA ffAf | "G"BggB ggBg | "D"AffA ffAf | "A"ceec eece |
"D"AffA ffAf | "A"BggB gB g2 | "D"fedf "A"edce | "D"d2 d/f/a d'2 :|
% abcbook-tune_id 6298c245e616cb6a786618d5


% abcbook-boost 0
% abcbook-tablature 
% abcbook-transpose 
% abcbook-lastupdated 1654178373425
% abcbook-soundfonts 
% abcbook-repeats 1


